RestoDelMundo/Espana/Otras Categorias/Atleticom.svg

<svg xmlns="http://www.w3.org/2000/svg" width="1000" height="1000" viewBox="0 0 1000 1000"><g transform="translate(-922.248 -1507.871)scale(4.7619)"><path fill="#f9d529" d="M215.952 449.994c0 9.28 4.35 18.002 11.728 23.574L298 526.89l70.36-53.343a29.57 29.57 0 0 0 11.688-23.553V316.89H215.952z"/><path fill="#3b59a1" d="M220.604 449.994c.02 7.818 3.668 15.154 9.882 19.846L298 521.036l67.535-51.216a24.89 24.89 0 0 0 9.862-19.826V321.56H220.604z"/><path fill="#e25645" d="m298 521.036 67.535-51.216a24.89 24.89 0 0 0 9.862-19.826V321.56L230.465 469.82z"/><g fill="#fff"><path d="m359.841 337.476-20.226 20.688v131.32l20.226-15.336ZM324.06 374.061l-20.227 20.706v121.839l20.227-15.335ZM288.277 410.663l-20.225 20.689v66.972l20.225 15.335ZM252.496 447.267l-22.031 22.553 22.031 16.717Z"/></g><g fill="#fff"><path d="m231.508 384.264-2.065 5.713-6.073.2 4.79 3.708-1.683 5.854 5.031-3.428 5.012 3.428-1.684-5.854 4.791-3.708-6.073-.2ZM310.188 364.117l-2.064 5.733-6.075.18 4.81 3.729-1.703 5.854 5.032-3.428 5.031 3.428-1.703-5.854 4.809-3.729-6.093-.18ZM349.517 323.886l-2.064 5.733-6.073.18 4.809 3.729-1.703 5.832 5.031-3.407 5.032 3.407-1.704-5.832 4.81-3.729-6.072-.18ZM231.508 323.886l-2.065 5.733-6.073.18 4.79 3.729-1.683 5.832 5.031-3.407 5.012 3.407-1.684-5.832 4.791-3.729-6.073-.18ZM290.503 323.886l-2.044 5.733-6.095.18 4.812 3.729-1.704 5.832 5.031-3.407 5.031 3.407-1.703-5.832 4.811-3.729-6.075-.18ZM231.508 444.621l-2.065 5.732-6.073.181 4.79 3.73-1.683 5.832 5.031-3.407 5.012 3.407-1.684-5.832 4.791-3.73-6.073-.181ZM270.878 404.33l-2.065 5.733-6.074.18 4.811 3.728-1.703 5.834 5.031-3.408 5.031 3.408-1.704-5.834 4.812-3.728-6.074-.18Z"/></g><path fill="#fff" d="M242.393 426.46v-83.131h81.246Z"/><path fill="#343536" d="M263.12 369.309c-.281.882-.702 4.21-.802 4.591-.12.381-1.123.542-1.664-.02-.54-.561-1.463-3.167-2.666-4.571v11.086c.782.662 2.064.922 2.847.902.843 1.944 1.724 3.768 3.407 5.553-.501 2.686.221 4.33 1.885 5.773s.019 3.066-.601 3.088c-4.251.019 5.974 1.243 6.053.762.081-.482.06-1.103-.14-1.625-.883-2.425-1.082-3.809.2-5.934 2.485.441 2.906-1.463 1.583-3.087-.802-1.984.241-1.984-1.664-4.31-1.883-2.305-3.107-8.199-1.702-10.543 1.201-2.025 2.023-3.348-.742-3.067-.742-.561-1.263-1.303-2.025-1.504-.762-.22-1.323.341-2.023.161-1.204-.301-2.387-3.027-3.188-.381-.261.861 1.543 2.224 1.242 3.126"/><path fill="#794f3e" d="m258.569 370.03.02 10.444.021 12.428c.079 1.584.921 2.226 2.304 2.267l8.48.24c1.262.04 3.689 1.603.04 1.583l-22.011-.039c-1.423-.041-.461-1.324 1.204-1.363l4.87-.421c1.182-.041 1.765-.882 1.765-2.526v-25.94a1.9 1.9 0 0 0-.401-1.042c.621.06 1.243.08 1.884.08a17 17 0 0 0 2.285-.14c-.28.32-.42.701-.461 1.102z"/><path fill="#297e66" d="m263.861 364.478-.08-.1-1.563.902-.501-.04c-1.543.44-3.228.681-4.972.681-7.517 0-13.631-4.389-13.631-9.781s6.114-9.783 13.631-9.783 13.651 4.39 13.651 9.783c0 3.527-2.625 6.614-6.535 8.338"/><circle cx="254.58" cy="350.606" r=".922" fill="#e25645"/><path fill="#e25645" d="M248.707 354.155a.933.933 0 0 0 .922-.922.92.92 0 0 0-.922-.922.907.907 0 0 0-.922.922.92.92 0 0 0 .922.922M253.818 360.208c.502 0 .923-.4.923-.921a.933.933 0 0 0-.923-.922.92.92 0 0 0-.922.922c0 .521.402.921.922.921M262.519 360.168a.94.94 0 0 0 .923-.942.933.933 0 0 0-.923-.921.93.93 0 0 0-.922.921c0 .521.421.942.922.942M258.649 355.838c.523 0 .942-.4.942-.921a.936.936 0 0 0-.942-.922.933.933 0 0 0-.922.922.92.92 0 0 0 .922.921M265.565 354.034c.501 0 .922-.4.922-.922 0-.5-.421-.923-.922-.923-.5 0-.922.422-.922.923a.92.92 0 0 0 .922.922"/></g></svg>

<svg enable-background="new 0 0 595.276 841.89" height="1000" viewBox="0 0 1000 1000" width="1000" xmlns="http://www.w3.org/2000/svg"><g transform="matrix(4.7619048 0 0 4.7619048 -922.24809 -1507.8713)"><path d="M 215.952 449.994 c 0 9.28 4.35 18.002 11.728 23.574 L 298 526.89 l 70.36 -53.343 c 7.377 -5.612 11.688 -14.312 11.688 -23.553 V 316.89 H 215.952 V 449.994 z" fill="#f9d529"/><path d="M 220.604 449.994 c .02 7.818 3.668 15.154 9.882 19.846 L 298 521.036 l 67.535 -51.216 c 6.213 -4.712 9.862 -12.049 9.862 -19.826 V 321.56 H 220.604 V 449.994 z" fill="#3b59a1"/><path d="M 298 521.036 l 67.535 -51.216 c 6.213 -4.712 9.862 -12.049 9.862 -19.826 V 321.56 L 230.465 469.82 L 298 521.036 z" fill="#e25645"/><g><path d="M 359.841 337.476 L 339.615 358.164 L 339.615 489.484 L 359.841 474.148 Z" fill="#fff"/><path d="M 324.06 374.061 L 303.833 394.767 L 303.833 516.606 L 324.06 501.271 Z" fill="#fff"/><path d="M 288.277 410.663 L 268.052 431.352 L 268.052 498.324 L 288.277 513.659 Z" fill="#fff"/><path d="M 252.496 447.267 L 230.465 469.82 L 252.496 486.537 Z" fill="#fff"/></g><g><path d="M 231.508 384.264 L 229.443 389.977 L 223.37 390.177 L 228.16 393.885 L 226.477 399.739 L 231.508 396.311 L 236.52 399.739 L 234.836 393.885 L 239.627 390.177 L 233.554 389.977 Z" fill="#fff"/><g><path d="M 310.188 364.117 L 308.124 369.85 L 302.049 370.03 L 306.859 373.759 L 305.156 379.613 L 310.188 376.185 L 315.219 379.613 L 313.516 373.759 L 318.325 370.03 L 312.232 369.85 Z" fill="#fff"/><path d="M 349.517 323.886 L 347.453 329.619 L 341.38 329.799 L 346.189 333.528 L 344.486 339.36 L 349.517 335.953 L 354.549 339.36 L 352.845 333.528 L 357.655 329.799 L 351.583 329.619 Z" fill="#fff"/><path d="M 231.508 323.886 L 229.443 329.619 L 223.37 329.799 L 228.16 333.528 L 226.477 339.36 L 231.508 335.953 L 236.52 339.36 L 234.836 333.528 L 239.627 329.799 L 233.554 329.619 Z" fill="#fff"/><path d="M 290.503 323.886 L 288.459 329.619 L 282.364 329.799 L 287.176 333.528 L 285.472 339.36 L 290.503 335.953 L 295.534 339.36 L 293.831 333.528 L 298.642 329.799 L 292.567 329.619 Z" fill="#fff"/><path d="M 231.508 444.621 L 229.443 450.353 L 223.37 450.534 L 228.16 454.264 L 226.477 460.096 L 231.508 456.689 L 236.52 460.096 L 234.836 454.264 L 239.627 450.534 L 233.554 450.353 Z" fill="#fff"/><path d="M 270.878 404.33 L 268.813 410.063 L 262.739 410.243 L 267.55 413.971 L 265.847 419.805 L 270.878 416.397 L 275.909 419.805 L 274.205 413.971 L 279.017 410.243 L 272.943 410.063 Z" fill="#fff"/></g></g><path d="M 242.393 426.46 L 242.393 343.329 L 323.639 343.329 Z" fill="#fff"/><path d="M 263.12 369.309 c -.281 .882 -.702 4.21 -.802 4.591 c -.12 .381 -1.123 .542 -1.664 -.02 c -.54 -.561 -1.463 -3.167 -2.666 -4.571 v 11.086 c .782 .662 2.064 .922 2.847 .902 c .843 1.944 1.724 3.768 3.407 5.553 c -.501 2.686 .221 4.33 1.885 5.773 c 1.664 1.443 .019 3.066 -.601 3.088 c -4.251 .019 5.974 1.243 6.053 .762 c .081 -.482 .06 -1.103 -.14 -1.625 c -.883 -2.425 -1.082 -3.809 .2 -5.934 c 2.485 .441 2.906 -1.463 1.583 -3.087 c -.802 -1.984 .241 -1.984 -1.664 -4.31 c -1.883 -2.305 -3.107 -8.199 -1.702 -10.543 c 1.201 -2.025 2.023 -3.348 -.742 -3.067 c -.742 -.561 -1.263 -1.303 -2.025 -1.504 c -.762 -.22 -1.323 .341 -2.023 .161 c -1.204 -.301 -2.387 -3.027 -3.188 -.381 C 261.617 367.044 263.421 368.407 263.12 369.309 z" fill="#343536"/><path d="M 258.569 370.03 l .02 10.444 l .021 12.428 c .079 1.584 .921 2.226 2.304 2.267 l 8.48 .24 c 1.262 .04 3.689 1.603 .04 1.583 l -22.011 -.039 c -1.423 -.041 -.461 -1.324 1.204 -1.363 l 4.87 -.421 c 1.182 -.041 1.765 -.882 1.765 -2.526 v -25.94 c -.021 -.341 -.141 -.701 -.401 -1.042 c .621 .06 1.243 .08 1.884 .08 c .781 0 1.544 -.04 2.285 -.14 c -.28 .32 -.42 .701 -.461 1.102 V 370.03 z" fill="#794f3e"/><path d="M 263.861 364.478 l -.08 -.1 l -1.563 .902 l -.501 -.04 c -1.543 .44 -3.228 .681 -4.972 .681 c -7.517 0 -13.631 -4.389 -13.631 -9.781 c 0 -5.393 6.114 -9.783 13.631 -9.783 c 7.518 0 13.651 4.39 13.651 9.783 C 270.396 359.667 267.771 362.754 263.861 364.478 z" fill="#297e66"/><circle cx="254.58" cy="350.606" fill="#e25645" r=".922"/><path d="M 248.707 354.155 c .501 0 .922 -.421 .922 -.922 c 0 -.521 -.421 -.922 -.922 -.922 c -.521 0 -.922 .401 -.922 .922 C 247.785 353.734 248.186 354.155 248.707 354.155 z" fill="#e25645"/><path d="M 253.818 360.208 c .502 0 .923 -.4 .923 -.921 c 0 -.501 -.421 -.922 -.923 -.922 c -.52 0 -.922 .421 -.922 .922 C 252.896 359.808 253.298 360.208 253.818 360.208 z" fill="#e25645"/><path d="M 262.519 360.168 c .501 0 .923 -.421 .923 -.942 c 0 -.501 -.422 -.921 -.923 -.921 c -.501 0 -.922 .42 -.922 .921 C 261.597 359.747 262.018 360.168 262.519 360.168 z" fill="#e25645"/><path d="M 258.649 355.838 c .523 0 .942 -.4 .942 -.921 c 0 -.501 -.42 -.922 -.942 -.922 c -.501 0 -.922 .421 -.922 .922 C 257.728 355.438 258.148 355.838 258.649 355.838 z" fill="#e25645"/><path d="M 265.565 354.034 c .501 0 .922 -.4 .922 -.922 c 0 -.5 -.421 -.923 -.922 -.923 c -.5 0 -.922 .422 -.922 .923 C 264.644 353.634 265.065 354.034 265.565 354.034 z" fill="#e25645"/></g></svg>
